X:1
T:Mundus leprosus
T:Daniel Friderici
T:Source : Bicinia sacra---Rostock---J.Richelius---1642. Editor : André Vierendeels (12/07/17).
T:Notes : Original clefs : C1, C1 Editorial accidentals above the staff m 22 in S 1 : "A" notated as "G" in original print
T:Mundus leprosus
T:©
T:©
C:Daniel Friderici
Z:©
%%score [ 1 2 ]
L:1/8
Q:1/4=120
M:2/2
K:C
V:1 treble nm="Soprano 1" snm="S 1"
V:2 treble nm="Soprano 2" snm="S 2"
V:1
 A6 B2 | c2 d2 e4- | e2 d2 c2 B2 | A6 B2 | c8 | B4 z2 c2 | d4 G4 | A2 B2 c2 A2 | B2 G2 c4- | %9
w: Mun- *|||||dus, mun-|dus le-|pro- * * *||
 c2 BA B4 | c4 A4 | B4 c4 | z4 e4 | d4 c2 A2 | B2 G2 c4- | c2 BA B4 | c4 B4- | B2 B2 B4 | A8- | %19
w: |sus fit|mun- dus,|fit|mun- * *|dus, fit mun-||dus, san-|* gui- ne|Chri-|
 A4 ^G2 ^F2 | ^G8 | ^G8 :: A2 A2 A2 B2 | c4 B2 BB | z4 A4 | ^G4 A2 A2 | A2 B2 ^c4 | d2 dd e2 d2 | %28
w: ||sti:|Ex mul- tis gra-|tes vix ta- men|a-|git, ex mul-|tis gra- tes|vix ta- men u- nus|
 c2 BA G2 A2 | B2 c2 B2 A2 | G2 E2 A4- | A2 ^G^F G4 | A8 :| %33
w: a- * * * *||||git.|
V:2
 z8 | A6 B2 | c2 d2 e4- | e2 d2 c2 B2 | A2 E2 A4- | A2 ^G4 A2 | B4 B4 | c2 d2 e2 c2 | d4 e4 | d8 | %10
w: |Mun- *||||* dus, mun-|dus le-|pro- * * *|||
 e8 | z4 A4 | B4 c4 | z4 e4 | d4 c2 e2 | d8 | e4 d4- | d2 d2 d4 | c4 B2 A2 | B8- | B8 | E8 :: %22
w: sus,|fit|mun- dus,|fit|mun- dus, fit|mun-|dus, san-|* gui- ne|Chri- * *|||sti:|
 e2 ^c2 c2 d2 | e4 d2 dd | e2 d2 c4 | B4 c2 c2 | c2 d2 e4 | B2 BB z4 | e3 d/c/ B2 A2 | %29
w: Ex mul- tis gra-|tes vix ta- men|u- nus a-|git, ex mul-|tis gra- tes|vix ta- men|a- * * * *|
 G2 A2 B2 c2 | BE e3 d c2- | c2 BA B4 | A8 :| %33
w: |||git.|

